X:1
T:Title
%%score { ( 1 2 ) | ( 3 4 ) }
L:1/8
Q:1/4=100
M:6/8
K:D
V:1 treble nm="Grand Piano"
V:2 treble 
V:3 bass 
V:4 bass 
V:1
 .A3 z3 | .B3 F3 | .E3 .G3 | F6[K:bass] | .A3 z3 | .B3 .F3 | z3 .F3 | %7
w: Chas.~H.~Gabriel|||||||
[M:5/8] D3[K:bass][K:treble] z2 |[M:1/8] [FA] |[M:3/4] [FA]3 [DF]2 [GB] | [FA]3 [DF]2 [DF] | %11
w: ||||
 [CE]2 [GB] [FA]2 [EG] |[M:5/8] [DF]-[DF]- [DF]3 |[M:1/8] [FA] |[M:3/4] [FA]3 [DF]2 [GB] | %15
w: ||||
 [FA]3 [DF]2 [DF] | .[CE]2 [A,EG] [A,DF]2[K:bass] [G,CE] |[M:5/8] [F,D]-[F,D]- [F,D]3 |] %18
w: |||
V:2
 z A,A [F,F]GA | z B,A z A,D | z A,F z A,A | z[K:bass] F,A, DA,F, | z A,A FGA | z B,A z A,F | %6
 EFG z A,E |[M:5/8] z[K:bass] F,A,[K:treble] D2 |[M:1/8] x |[M:3/4] x6 | x6 | x6 |[M:5/8] x5 | %13
[M:1/8] x |[M:3/4] x6 | x6 | x5[K:bass] x |[M:5/8] x5 |] %18
V:3
 .[D,F,]2 D z A,D | .[D,F,]2 D .[D,F,]3 | .[A,,G,]2 C .[A,,G,]2 C | D,6 | D,2 [F,D] z A,[F,D] | %5
 D,2 [F,D] D,2 [F,D] | z B,[G,E] A,,2 [G,C] |[M:5/8] z z2 [F,A,]2 |[M:1/8] [D,D] | %9
[M:3/4] [D,D]3 [D,A,]2 [D,D] | [D,D]3 [D,A,]2 [D,A,] | [A,,A,]2 [A,,A,] [A,,A,]2 [A,,A,] | %12
[M:5/8] [D,A,]-[D,A,]- [D,A,]3 |[M:1/8] [D,D] |[M:3/4] [D,D]3 [D,A,]2 [D,D] | %15
 [D,D]3 [D,A,]2 [D,A,] | [A,,A,]2 z2 z2 |[M:5/8] D,-D,- D,3 |] %18
V:4
 z3 .D,3 | x6 | x6 | x6 | z3 .D,3 | x6 | .G,,3 z3 |[M:5/8] D,-D,- D,3 |[M:1/8] x |[M:3/4] x6 | x6 | %11
 x6 |[M:5/8] x5 |[M:1/8] x |[M:3/4] x6 | x6 | z F A,, A,,2 A,, |[M:5/8] x5 |] %18

